lib/svgs/team-terminal.svg

<?xml version="1.0" encoding="UTF-8" standalone="no"?>
<svg width="20px" height="20px" viewBox="0 0 20 20" version="1.1" xmlns="http://www.w3.org/2000/svg" xmlns:xlink="http://www.w3.org/1999/xlink">
    <defs></defs>
    <g id="Icons" stroke="none" stroke-width="1" fill="none" fill-rule="evenodd">
        <g id="Web" transform="translate(-49.000000, -2442.000000)" fill="#000000">
            <g id="team/team-terminal" transform="translate(49.000000, 2442.000000)">
                <path d="M3,6.125 L3,16.125 C3,16.47 3.28,16.75 3.625,16.75 L17.375,16.75 C17.72,16.75 18,16.47 18,16.125 L18,6.125 L3,6.125 M8.441875,11.566875 L6.125,13.88375 L5.24125,13 L7.11625,11.125 L5.24125,9.25 L6.125,8.36625 L8.441875,10.683125 C8.68625,10.9275 8.68625,11.3225 8.441875,11.566875 M13.625,13.625 L9.875,13.625 L9.875,12.375 L13.625,12.375 L13.625,13.625 M5.5,4.875 L5.5,3 L3.625,3 C3.28,3 3,3.28 3,3.625 L3,4.875 L5.5,4.875 M18,4.875 L18,3.625 C18,3.28 17.72,3 17.375,3 L6.75,3 L6.75,4.875 L18,4.875" id="Shape"></path>
            </g>
        </g>
    </g>
</svg>

<svg xmlns="http://www.w3.org/2000/svg" viewBox="0 0 20 20">
    <path fill="#000" fill-rule="evenodd" d="M3 6.125v10c0 .345.28.625.625.625h13.75c.345 0 .625-.28.625-.625v-10H3m5.442 5.442l-2.317 2.317L5.241 13l1.875-1.875L5.241 9.25l.884-.884 2.317 2.317a.624.624 0 0 1 0 .884m5.183 2.058h-3.75v-1.25h3.75v1.25M5.5 4.875V3H3.625A.625.625 0 0 0 3 3.625v1.25h2.5m12.5 0v-1.25A.625.625 0 0 0 17.375 3H6.75v1.875H18"/>
</svg>
